client/public/images/pieces/Absorption/ws.svg

<?xml version="1.0" encoding="UTF-8" standalone="no"?>
<!-- Created with Inkscape (http://www.inkscape.org/) -->

<svg
   xmlns:dc="http://purl.org/dc/elements/1.1/"
   xmlns:cc="http://creativecommons.org/ns#"
   xmlns:rdf="http://www.w3.org/1999/02/22-rdf-syntax-ns#"
   xmlns:svg="http://www.w3.org/2000/svg"
   xmlns="http://www.w3.org/2000/svg"
   xmlns:sodipodi="http://sodipodi.sourceforge.net/DTD/sodipodi-0.dtd"
   xmlns:inkscape="http://www.inkscape.org/namespaces/inkscape"
   width="45"
   height="45"
   id="svg3128"
   sodipodi:version="0.32"
   inkscape:version="0.92.5 (2060ec1f9f, 2020-04-08)"
   version="1.0"
   sodipodi:docname="wc.svg"
   inkscape:output_extension="org.inkscape.output.svg.inkscape">
  <defs
     id="defs3130">
    <inkscape:perspective
       sodipodi:type="inkscape:persp3d"
       inkscape:vp_x="0 : 22.5 : 1"
       inkscape:vp_y="0 : 1000 : 0"
       inkscape:vp_z="45 : 22.5 : 1"
       inkscape:persp3d-origin="22.5 : 15 : 1"
       id="perspective15" />
    <inkscape:perspective
       id="perspective12"
       inkscape:persp3d-origin="22.5 : 15 : 1"
       inkscape:vp_z="45 : 22.5 : 1"
       inkscape:vp_y="0 : 1000 : 0"
       inkscape:vp_x="0 : 22.5 : 1"
       sodipodi:type="inkscape:persp3d" />
  </defs>
  <sodipodi:namedview
     id="base"
     pagecolor="#ffffff"
     bordercolor="#666666"
     borderopacity="1.0"
     gridtolerance="10000"
     guidetolerance="10"
     objecttolerance="10"
     inkscape:pageopacity="0.0"
     inkscape:pageshadow="2"
     inkscape:zoom="8.0000004"
     inkscape:cx="60.308779"
     inkscape:cy="24.511479"
     inkscape:document-units="px"
     inkscape:current-layer="layer1"
     height="45px"
     width="45px"
     inkscape:grid-points="true"
     showgrid="false"
     inkscape:window-width="1920"
     inkscape:window-height="1060"
     inkscape:window-x="0"
     inkscape:window-y="20"
     inkscape:window-maximized="0">
    <inkscape:grid
       id="GridFromPre046Settings"
       type="xygrid"
       originx="0"
       originy="0"
       spacingx="0.5"
       spacingy="0.5"
       color="#0000ff"
       empcolor="#0000ff"
       opacity="0.2"
       empopacity="0.4"
       empspacing="5" />
  </sodipodi:namedview>
  <metadata
     id="metadata3133">
    <rdf:RDF>
      <cc:Work
         rdf:about="">
        <dc:format>image/svg+xml</dc:format>
        <dc:type
           rdf:resource="http://purl.org/dc/dcmitype/StillImage" />
        <dc:title />
      </cc:Work>
    </rdf:RDF>
  </metadata>
  <g
     inkscape:label="Layer 1"
     inkscape:groupmode="layer"
     id="layer1"
     style="display:inline">
    <path
       style="fill:#ffffff;fill-opacity:1;fill-rule:evenodd;stroke:#000000;stroke-width:1.64999998;stroke-linecap:butt;stroke-linejoin:round;stroke-miterlimit:4;stroke-dasharray:none;stroke-opacity:1"
       d="m 37.725,38.008918 c -3.723781,-1.069562 -11.126219,0.473903 -14.85,-2.2 -3.723782,2.673903 -11.12622,1.130438 -14.8500002,2.2 0,0 -1.8104878,0.595658 -3.3,2.2 0.7447561,1.069561 1.8104878,1.08478 3.3,0.55 3.7237802,-1.069561 11.1262182,0.504342 14.8500002,-1.1 3.723781,1.604342 11.126219,0.03044 14.85,1.1 1.489512,0.53478 2.555244,0.519561 3.3,-0.55 -1.489512,-2.139123 -3.3,-2.2 -3.3,-2.2 z"
       id="path4582"
       sodipodi:nodetypes="ccccccccc"
       inkscape:connector-curvature="0" />
    <path
       style="fill:#ffffff;fill-opacity:1;fill-rule:evenodd;stroke:#000000;stroke-width:1.64999998;stroke-linecap:butt;stroke-linejoin:round;stroke-miterlimit:4;stroke-dasharray:none;stroke-opacity:1"
       d="m 31.125,33.608918 c -2.75,2.75 -13.75,2.75 -16.5,0 -0.55,-1.65 0,-2.2 0,-2.2 h 16.5 c 0,0 0.55,0.55 0,2.2 z"
       id="path4584"
       sodipodi:nodetypes="ccccc"
       inkscape:connector-curvature="0" />
    <path
       style="fill:none;fill-opacity:0.75;fill-rule:evenodd;stroke:#000000;stroke-width:1.64999998;stroke-linecap:butt;stroke-linejoin:miter;stroke-miterlimit:4;stroke-dasharray:none;stroke-opacity:1"
       d="m 31.125,31.408918 h -16.5"
       id="path4590"
       sodipodi:nodetypes="cc"
       inkscape:connector-curvature="0" />
    <g
       id="g3323"
       inkscape:label="Layer 1"
       transform="matrix(-0.84196464,0,0,-0.84196464,39.051174,37.108928)">
      <path
         sodipodi:nodetypes="cccc"
         id="path3491"
         d="M 22.028958,36 C 11.528958,35 5.5289585,28 6.0289585,7 H 29.028958 c 0,9 -10,6.5 -8,21"
         style="fill:#ffffff;fill-opacity:1;fill-rule:evenodd;stroke:#000000;stroke-width:1.5;stroke-linecap:round;stroke-linejoin:miter;stroke-miterlimit:4;stroke-dasharray:none;stroke-opacity:1"
         inkscape:connector-curvature="0" />
      <path
         sodipodi:nodetypes="csccccccccccc"
         id="path3495"
         d="m 20.028958,28 c -0.384461,-2.911278 5.552936,-7.368624 8,-9 3,-2 2.819198,-4.342892 5,-4 1.04172,0.944016 -1.413429,3.037549 0,3 1,0 -0.187332,-1.231727 1,-2 1,0 4.003161,-0.999999 4,4 0,2 -6,12 -6,12 0,0 -1.885866,1.902129 -2,3.5 0.726047,0.994369 0.5,2 0.5,3 -1,1 -3,-2.5 -3,-2.5 h -2 c 0,0 -0.781781,1.991926 -2.5,3 -1,0 -1,-3 -1,-3"
         style="fill:#ffffff;fill-opacity:1;fill-rule:evenodd;stroke:#000000;stroke-width:1.5;stroke-linecap:round;stroke-linejoin:round;stroke-miterlimit:4;stroke-dasharray:none;stroke-opacity:1"
         inkscape:connector-curvature="0" />
      <circle
         transform="rotate(180,21.764479,22)"
         id="path3499"
         style="opacity:1;fill:#000000;fill-opacity:1;stroke:#000000;stroke-width:1.5;stroke-linecap:round;stroke-linejoin:round;stroke-miterlimit:4;stroke-dasharray:none;stroke-opacity:1"
         cx="8.5"
         cy="23.5"
         r="0.5" />
      <ellipse
         transform="rotate(-149.99999,24.024104,20.986505)"
         id="path3501"
         style="opacity:1;fill:#000000;fill-opacity:1;stroke:#000000;stroke-width:1.50000048;stroke-linecap:round;stroke-linejoin:round;stroke-miterlimit:4;stroke-dasharray:none;stroke-opacity:1"
         cx="14.5"
         cy="15.5"
         rx="0.5"
         ry="1.5" />
      <path
         sodipodi:nodetypes="cc"
         id="path8049"
         d="m 7.0289585,7 c -1,20 5.4999995,27.5 11.9999995,28.5"
         style="fill:none;fill-opacity:0.75;fill-rule:evenodd;stroke:#000000;stroke-width:1;stroke-linecap:round;stroke-linejoin:miter;stroke-miterlimit:4;stroke-dasharray:none;stroke-opacity:1"
         inkscape:connector-curvature="0" />
    </g>
  </g>
  <g
     inkscape:groupmode="layer"
     id="layer2"
     inkscape:label="Layer 1#1"
     style="display:inline" />
</svg>

<?xml version="1.0" encoding="UTF-8" standalone="no"?>
<!-- Created with Inkscape (http://www.inkscape.org/) -->

<svg
   xmlns:dc="http://purl.org/dc/elements/1.1/"
   xmlns:cc="http://creativecommons.org/ns#"
   xmlns:rdf="http://www.w3.org/1999/02/22-rdf-syntax-ns#"
   xmlns:svg="http://www.w3.org/2000/svg"
   xmlns="http://www.w3.org/2000/svg"
   xmlns:sodipodi="http://sodipodi.sourceforge.net/DTD/sodipodi-0.dtd"
   xmlns:inkscape="http://www.inkscape.org/namespaces/inkscape"
   width="45"
   height="45"
   id="svg3128"
   sodipodi:version="0.32"
   inkscape:version="0.92.2 5c3e80d, 2017-08-06"
   version="1.0"
   sodipodi:docname="Chess_alt45.svg"
   inkscape:output_extension="org.inkscape.output.svg.inkscape">
  <defs
     id="defs3130">
    <inkscape:perspective
       sodipodi:type="inkscape:persp3d"
       inkscape:vp_x="0 : 22.5 : 1"
       inkscape:vp_y="0 : 1000 : 0"
       inkscape:vp_z="45 : 22.5 : 1"
       inkscape:persp3d-origin="22.5 : 15 : 1"
       id="perspective15" />
    <inkscape:perspective
       id="perspective12"
       inkscape:persp3d-origin="22.5 : 15 : 1"
       inkscape:vp_z="45 : 22.5 : 1"
       inkscape:vp_y="0 : 1000 : 0"
       inkscape:vp_x="0 : 22.5 : 1"
       sodipodi:type="inkscape:persp3d" />
  </defs>
  <sodipodi:namedview
     id="base"
     pagecolor="#ffffff"
     bordercolor="#666666"
     borderopacity="1.0"
     gridtolerance="10000"
     guidetolerance="10"
     objecttolerance="10"
     inkscape:pageopacity="0.0"
     inkscape:pageshadow="2"
     inkscape:zoom="2.0000001"
     inkscape:cx="59.308779"
     inkscape:cy="58.114787"
     inkscape:document-units="px"
     inkscape:current-layer="layer1"
     height="45px"
     width="45px"
     inkscape:grid-points="true"
     showgrid="false"
     inkscape:window-width="960"
     inkscape:window-height="1060"
     inkscape:window-x="0"
     inkscape:window-y="20"
     inkscape:window-maximized="0">
    <inkscape:grid
       id="GridFromPre046Settings"
       type="xygrid"
       originx="0"
       originy="0"
       spacingx="0.5"
       spacingy="0.5"
       color="#0000ff"
       empcolor="#0000ff"
       opacity="0.2"
       empopacity="0.4"
       empspacing="5" />
  </sodipodi:namedview>
  <metadata
     id="metadata3133">
    <rdf:RDF>
      <cc:Work
         rdf:about="">
        <dc:format>image/svg+xml</dc:format>
        <dc:type
           rdf:resource="http://purl.org/dc/dcmitype/StillImage" />
        <dc:title></dc:title>
      </cc:Work>
    </rdf:RDF>
  </metadata>
  <g
     inkscape:label="Layer 1"
     inkscape:groupmode="layer"
     id="layer1"
     style="display:inline">
    <path
       style="fill:#ffffff;fill-opacity:1;fill-rule:evenodd;stroke:#000000;stroke-width:1.5;stroke-linecap:butt;stroke-linejoin:round;stroke-miterlimit:4;stroke-dasharray:none;stroke-opacity:1"
       d="M 36,36 C 32.614745,35.027671 25.885256,36.430821 22.5,34 C 19.114744,36.430821 12.385255,35.027671 9,36 C 9,36 7.354102,36.541507 6,38 C 6.677051,38.972328 7.645898,38.986164 9,38.5 C 12.385255,37.527672 19.114744,38.958493 22.5,37.5 C 25.885256,38.958493 32.614745,37.527672 36,38.5 C 37.354102,38.986164 38.322949,38.972328 39,38 C 37.645898,36.055343 36,36 36,36 z"
       id="path4582"
       sodipodi:nodetypes="ccccccccc" />
    <path
       style="fill:#ffffff;fill-opacity:1;fill-rule:evenodd;stroke:#000000;stroke-width:1.5;stroke-linecap:butt;stroke-linejoin:round;stroke-miterlimit:4;stroke-dasharray:none;stroke-opacity:1"
       d="M 30,32 C 27.5,34.5 17.5,34.5 15,32 C 14.5,30.5 15,30 15,30 L 30,30 C 30,30 30.5,30.5 30,32 z"
       id="path4584"
       sodipodi:nodetypes="ccccc" />
    <path
       style="fill:none;fill-opacity:0.75;fill-rule:evenodd;stroke:#000000;stroke-width:1.5;stroke-linecap:butt;stroke-linejoin:miter;stroke-miterlimit:4;stroke-dasharray:none;stroke-opacity:1"
       d="M 30,30 L 15,30"
       id="path4590"
       sodipodi:nodetypes="cc" />
    <g
       id="g3323"
       inkscape:label="Layer 1"
       transform="matrix(-0.7654224,0,0,-0.7654224,37.205613,35.181827)">
      <path
         sodipodi:nodetypes="cccc"
         id="path3491"
         d="M 22.028958,36 C 11.528958,35 5.5289585,28 6.0289585,7 L 29.028958,7 C 29.028958,16 19.028958,13.5 21.028958,28"
         style="fill:#ffffff;fill-opacity:1;fill-rule:evenodd;stroke:#000000;stroke-width:1.5;stroke-linecap:round;stroke-linejoin:miter;stroke-miterlimit:4;stroke-dasharray:none;stroke-opacity:1" />
      <path
         sodipodi:nodetypes="csccccccccccc"
         id="path3495"
         d="M 20.028958,28 C 19.644497,25.088722 25.581894,20.631376 28.028958,19 C 31.028958,17 30.848156,14.657108 33.028958,15 C 34.070678,15.944016 31.615529,18.037549 33.028958,18 C 34.028958,18 32.841626,16.768273 34.028958,16 C 35.028958,16 38.032119,15.000001 38.028958,20 C 38.028958,22 32.028958,32 32.028958,32 C 32.028958,32 30.143092,33.902129 30.028958,35.5 C 30.755005,36.494369 30.528958,37.5 30.528958,38.5 C 29.528958,39.5 27.528958,36 27.528958,36 L 25.528958,36 C 25.528958,36 24.747177,37.991926 23.028958,39 C 22.028958,39 22.028958,36 22.028958,36"
         style="fill:#ffffff;fill-opacity:1;fill-rule:evenodd;stroke:#000000;stroke-width:1.5;stroke-linecap:round;stroke-linejoin:round;stroke-miterlimit:4;stroke-dasharray:none;stroke-opacity:1" />
      <path
         transform="matrix(-1,0,0,-1,43.528958,44)"
         d="M 9,23.5 A 0.5,0.5 0 0 1 8.5,24 0.5,0.5 0 0 1 8,23.5 0.5,0.5 0 0 1 8.5,23 0.5,0.5 0 0 1 9,23.5 Z"
         sodipodi:ry="0.5"
         sodipodi:rx="0.5"
         sodipodi:cy="23.5"
         sodipodi:cx="8.5"
         id="path3499"
         style="opacity:1;fill:#000000;fill-opacity:1;stroke:#000000;stroke-width:1.5;stroke-linecap:round;stroke-linejoin:round;stroke-miterlimit:4;stroke-dasharray:none;stroke-opacity:1"
         sodipodi:type="arc" />
      <path
         transform="matrix(-0.866025,-0.5,0.5,-0.866025,34.336326,51.173394)"
         d="M 15,15.5 A 0.5,1.5 0 0 1 14.5,17 0.5,1.5 0 0 1 14,15.5 0.5,1.5 0 0 1 14.5,14 0.5,1.5 0 0 1 15,15.5 Z"
         sodipodi:ry="1.5"
         sodipodi:rx="0.5"
         sodipodi:cy="15.5"
         sodipodi:cx="14.5"
         id="path3501"
         style="opacity:1;fill:#000000;fill-opacity:1;stroke:#000000;stroke-width:1.50000048;stroke-linecap:round;stroke-linejoin:round;stroke-miterlimit:4;stroke-dasharray:none;stroke-opacity:1"
         sodipodi:type="arc" />
      <path
         sodipodi:nodetypes="cc"
         id="path8049"
         d="M 7.0289585,7 C 6.0289585,27 12.528958,34.5 19.028958,35.5"
         style="fill:none;fill-opacity:0.75;fill-rule:evenodd;stroke:#000000;stroke-width:1;stroke-linecap:round;stroke-linejoin:miter;stroke-miterlimit:4;stroke-dasharray:none;stroke-opacity:1" />
    </g>
  </g>
  <g
     inkscape:groupmode="layer"
     id="layer2"
     inkscape:label="Layer 1#1"
     style="display:inline" />
</svg>
